arkscan/icons/hyperliquid.svg

<svg width="202" height="200" viewBox="0 0 202 200" fill="none" xmlns="http://www.w3.org/2000/svg">
<path d="M201.141 99.2811C201.324 115.737 197.88 131.461 191.116 146.484C181.456 167.876 158.296 185.369 137.147 166.749C119.899 151.573 116.699 120.765 90.8582 116.255C56.6668 112.11 55.844 151.756 33.507 156.236C8.61021 161.294 0.351928 119.424 0.717609 100.408C1.08329 81.393 6.14188 54.6678 27.778 54.6678C52.6748 54.6678 54.3508 92.3634 85.9519 90.3217C117.248 88.1886 117.796 48.9692 138.244 32.1784C155.888 17.6731 176.641 28.3083 187.032 45.7696C196.662 61.9205 200.898 80.8749 201.111 99.2811H201.141Z" fill="#072723"/>
</svg>

<svg width="202" height="200" fill="none" xmlns="http://www.w3.org/2000/svg"><path d="M201.141 99.281c.183 16.456-3.261 32.18-10.025 47.203-9.66 21.392-32.82 38.885-53.969 20.265-17.248-15.176-20.448-45.984-46.289-50.494-34.191-4.145-35.014 35.501-57.351 39.981C8.61 161.294.352 119.424.717 100.408c.366-19.015 5.425-45.74 27.061-45.74 24.897 0 26.573 37.695 58.174 35.654 31.296-2.133 31.844-41.353 52.292-58.144 17.644-14.505 38.397-3.87 48.788 13.592 9.63 16.15 13.866 35.105 14.079 53.511h.03Z" fill="#072723"/></svg>
